X: 2128
T: Mr DOUGLAS OF SPRINGWOOD PARK
Q: "Strathspey."
R: Strathspey.
%R: strathspey
B: James Kerr "Merry Melodies" v.2 p.16 #128
Z: 2016 John Chambers <jc:trillian.mit.edu>
M: C
L: 1/8
K: G
D |\
vD<GG>uE vF>vGuA>uF | G>Bd>B e3uf |\
vg<be>ug vd<gB>ug | vE<AA>uG vF>vEuF>uD |\
vD<GG>uE vF>vGuA>uF | G>Bd>B e3uf |\
vg<be>ug vd<gB>ug | E<AF>D G3 |]
ud |\
(e<g)ug>ue (f<a)ud>uf | ve>vfug>ue d2(c>B) |\
vc>vdue>uc B<dg>uB | E<AA>G F>EF>D |\
D<GG>E F>GA>F | B<Gd<B e3uf |\
(3gbg (3ege d>gB>g | E<AF>D G3 |]
